icons/unpin-16.svg

<svg id="icons" xmlns="http://www.w3.org/2000/svg" viewBox="0 0 16 16"><path d="M14,8.80383V10H9.82843l.99994-1H13V8.80371a.49657.49657,0,0,0-.31885-.46582l-.8573-.33337.77259-.77259.4472.17389A1.5,1.5,0,0,1,14,8.80383ZM8,15l.5,1L9,15V10.82843L8,11.82849ZM15.92462,1.78247,1.78247,15.92462l-.70709-.70709L6.29291,10H3V8.80383a1.5,1.5,0,0,1,.95636-1.398L5,7,6.037,3,4.26642,1.25641A.51121.51121,0,0,1,4,.80762V0h9V.80762a.51121.51121,0,0,1-.26642.44879L10.963,3l.47968,1.85022,3.77484-3.77484ZM6.447,2H10.553l1.01532-1H5.43164ZM6.033,7H9.29291l1.3294-1.32941L9.92987,3H7.07013ZM7.29291,9l1-1H5.18768l-.86883.33789A.49657.49657,0,0,0,4,8.80371V9Z"/><path fill="none" d="M0 0h16v16H0z"/></svg>

<svg xmlns="http://www.w3.org/2000/svg" viewBox="0 0 16 16"><path d="M14 8.804V10H9.828l1-1H13v-.196a.497.497 0 0 0-.319-.466l-.857-.333.772-.773.448.174A1.5 1.5 0 0 1 14 8.804zM8 15l.5 1 .5-1v-4.172l-1 1zm7.925-13.218L1.782 15.925l-.707-.707L6.293 10H3V8.804a1.5 1.5 0 0 1 .956-1.398L5 7l1.037-4-1.77-1.744A.511.511 0 0 1 4 .808V0h9v.808a.511.511 0 0 1-.266.448L10.963 3l.48 1.85 3.775-3.775zM6.447 2h4.106l1.015-1H5.432zm-.414 5h3.26l1.33-1.33L9.93 3H7.07zm1.26 2l1-1H5.188l-.87.338A.497.497 0 0 0 4 8.804V9z"/><path fill="none" d="M0 0h16v16H0z"/></svg>
